X:9
T:Space Level - Cosmic Journey
C:AI Composer
M:4/4
L:1/8
Q:1/4=128
K:Em
V:1 name="Space"
|: "Em"e2 g2 b2 g2 | "Am"a2 c'2 e'2 c'2 | "B"b2 d'2 f'2 d'2 | "Em"e'2 b2 g2 e2 :|
|: "C"c'2 g2 e2 c2 | "D"d'2 a2 f2 d2 | "Em"e'2 b2 g2 e2 | "B"b2 f2 d2 B2 :|
|: "Am"a2 e'2 c'2 a2 | "Em"g2 e'2 b2 g2 | "D"f2 d'2 a2 f2 | "Em"e2 b2 e'2 b2 :|
|: "Em"e'4 b4 | g2 e2 b,2 g,2 | "Am"c'4 a4 | e2 c2 a,2 e,2 |
   "B"d'4 b4 | f2 d2 b,2 f,2 | "Em"e4 e'4 | e'8 :|

